src/icons/checkmark-box.svg

<svg xmlns="http://www.w3.org/2000/svg" width="512" height="512" viewBox="0 0 512 512">
    <path d="M397.1 404.3H114.9c-10.4 0-18.9-8.4-18.9-18.9V113.6c.1-10.5 8.5-18.9 18.9-18.9H397c10.4 0 18.9 8.4 18.9 18.9v271.8c0 10.5-8.4 18.9-18.8 18.9zm-11.9-30.4V124H125.5v250h259.7v-.1z"/>
</svg>

<?xml version="1.0" encoding="UTF-8"?>
<svg width="512px" height="512px" viewBox="0 0 512 512" version="1.1" xmlns="http://www.w3.org/2000/svg" xmlns:xlink="http://www.w3.org/1999/xlink">
    <!-- Generator: Sketch 62 (91390) - https://sketch.com -->
    <title>checkmark-box</title>
    <desc>Created with Sketch.</desc>
    <g id="checkmark-box" stroke="none" stroke-width="1" fill="none" fill-rule="evenodd">
        <path d="M397.1,404.3 L114.9,404.3 C104.5,404.3 96,395.9 96,385.4 L96,113.6 C96.1,103.1 104.5,94.7 114.9,94.7 L397,94.7 C407.4,94.7 415.9,103.1 415.9,113.6 L415.9,385.4 C415.9,395.9 407.5,404.3 397.1,404.3 L397.1,404.3 Z M385.2,373.9 L385.2,124 L125.5,124 L125.5,374 L385.2,374 L385.2,373.9 L385.2,373.9 Z" id="Shape" fill="#000000" fill-rule="nonzero"></path>
    </g>
</svg>
